!!!OTL: Jaeger und Graefin
!!!ARE: Europa, Mitteleuropa, Deutschland
!!!SCT: A0438
!!!YEM: Copyright 1995, estate of Helmut Schaffrath.
**kern
*ICvox
*Ivox
!! Mixed meters:  4/2; 6/2
*M6/2
*k[b-]
*F:
{2f
=1
2f
2f
2f
2f
=2
1e
1c
2r}
{2c
=3
1f
2g
1a
2b-
=4
*M4/2
1.g}
{2f
=5
2f
2f
2f
2f
=6
*M6/2
1e
1c
2r}
{2c
=7
1f
2g
1a
2b-
=8
*M4/2
1.g}
{2g
=9
2a
2a
2b-
2b-
=10
*M6/2
1cc
1cc
2r}
{2cc
=11
*M4/2
2.b-
4a
2g
[2a
=12
2a]
2b-
1g
=13
0f}
=14
{1a
=15
*M6/2
1cc
2a
2b-
1g
=16
1.f}
==
!!!AGN: Romanze, Ballade, Lied, Jaegerlied
!! Forster IV 1556 No. 17.
!!!ONB: ESAC (Essen Associative Code) Database: ALTDEU
!!!AMT: irregular
!!!AIN: vox
!!!EED: Helmut Schaffrath
!!!EEV: 1.0
*-
